X: 1547
T: Angie And The Old Irish Gent
R: hornpipe
M: 4/4
K: Gmajor
|:BcBA G3 F|EDEF .G2 D2-|DEGA BGGA|BcdB c2 B/c/d|
turn!e3 c A2 B/c/d|edBA ~G3 F|ED E/F/G ABAG|ED E/F/G AFGF|
turn!E3 G FDFA|1 FGGF GBdc:|2 FGGF Gdef||
|:g2 fg egdg|agfg dgdB|cedc (B{/c}B) G2|BAGB AFGF|
turn!E3 G D2 D/E/F|Gcec dBAG|ED E/F/G ABAG|ED E/F/G AFGF|
turn!E3 G FDFA|1 FGGF Gdef:|2 FGGF GBdc||

